X: 10070
T: Dickey's Tune
R: jig
M: 6/8
K: Gmajor
|:G3 GAB|A3 ABc|dcB cBA|dcB cBA|
G3 GAB|A3 ABc|dcB cBA|BcB G3:|
|:c3 B2c|d2e f2g|g2f e2d|g2f e2d|
c3 B2c|d2e f2g|g2f e2d|BAG4:|
|:GBd g2g|f2e d2A|B2d A2d|B2d A2d|
GBd g2g|f2e d2A|B2d A2d|B2A G3:|

